X: 42233
T: Wayside Waggon, The
R: reel
M: 4/4
K: Dmajor
|:Bc|d2 df afed|(3.c.B.A eA fAec|(3.d.e.d df afed|cdeg fd:|
|:ec|dBAG ~F3A|~E3c eBBc|dBAG F2 AF|Ddde f2:|

